!!!COM: Palestrina, Giovanni Perluigi da
!!!OPR: L'homme arme (1582)
!!!OTL: Agnus II
**kern	**kern	**kern	**kern	**kern
*Ibass	*Ibass	*Itenor	*Icalto	*Icant
!Bassus 2	!Bassus 1	!Tenor	!Altus	!Cantus
*clefF4	*clefF4	*clefGv2	*clefG2	*clefG2
*k[]	*k[]	*k[]	*k[]	*k[]
*D:dor	*D:dor	*D:dor	*D:dor	*D:dor
*M4/2	*M4/2	*M4/2	*M4/2	*M4/2
=1	=1	=1	=1	=1
0r	2.D	[0d	1.A	2.f
.	4E	.	.	4g
.	2F	.	.	2a
.	2G	.	2G	2b-
=2	=2	=2	=2	=2
0r	2F	1d]	2A	2a
.	4D	.	2B-	4f
.	4E	.	.	4g
.	4F	[1c	2A	4a
.	4G	.	.	4b-
.	[2A	.	4F	[2cc
.	.	.	4G	.
=3	=3	=3	=3	=3
0r	4A]	0c]	4A	4cc]
.	4G	.	4B-	4b-
.	2F	.	4c	2a
.	.	.	4d	.
.	1E	.	4e	2g
.	.	.	4f	.
.	.	.	4g	2e
.	.	.	4e	.
=4	=4	=4	=4	=4
2.D	2r	[0d	2.f	1.a
.	1D	.	.	.
4E	.	.	4e	.
2F	.	.	4d	.
.	.	.	4c	.
2G	2GG	.	2B-	2g
=5	=5	=5	=5	=5
2F	1.D	1d]	2A	2.a
4D	.	.	1f	.
4E	.	.	.	4g
4F	.	[1A	.	4a
4G	.	.	.	4b
[2A	4C	.	4e	[2cc
.	4BB-	.	4d	.
=6	=6	=6	=6	=6
4A]	1AA	1A]	2c	4cc]
4G	.	.	.	4b-
2F	.	.	1d	2.a
1E	1AA	1r	.	.
.	.	.	.	4g
.	.	.	2c	2e
=7	=7	=7	=7	=7
2r	2.D	[0d	2B-	2.f
1D	.	.	1A	.
.	4E	.	.	4g
.	2F	.	.	2a
2GG	2G	.	2G	2b-
=8	=8	=8	=8	=8
1D	2F	1d]	1A	2a
.	2D	.	.	4f
.	.	.	.	4g
2.AA	[1A	[1e	2.c	4a
.	.	.	.	4b
.	.	.	.	2cc
4BB	.	.	4d	.
=9	=9	=9	=9	=9
2C	0A]	2e]	2e	2.a
2D	.	2d	2f	.
.	.	.	.	4b
4AA	.	1c	[1e	2cc
4BB	.	.	.	.
4C	.	.	.	[2a
4D	.	.	.	.
=10	=10	=10	=10	=10
1E	1r	1B	1e]	2a]
.	.	.	.	2g#
[1AA	2r	[1A	1e	2a
.	2A	.	.	2cc
=11	=11	=11	=11	=11
1AA]	1A	1A]	2r	1cc
.	.	.	2e	.
1r	2G	1r	1e	2b
.	2E	.	.	2g
=12	=12	=12	=12	=12
2r	2F	0r	2c	2a
2A	2D	.	2d	4f
.	.	.	.	4g
1A	1F	.	2c	4a
.	.	.	.	4b
.	.	.	2A	4cc
.	.	.	.	4a
=13	=13	=13	=13	=13
2G	2E	0r	1e	2b
2E	2C	.	.	2cc
1F	2D	.	[1d	2.a
.	4D	.	.	.
.	4E	.	.	4g
=14	=14	=14	=14	=14
2D	4F	0r	2d]	2f
.	4G	.	.	.
2F	1A	.	2A	2d
1E	.	.	2c	1e
.	2G#	.	2B	.
=15	=15	=15	=15	=15
2r	1A	1r	2c	2r
2D	.	.	2.d	2f
1D	1r	1A	.	1f
.	.	.	4c	.
.	.	.	4A	.
.	.	.	4B	.
=16	=16	=16	=16	=16
2C	0r	1A	4c	2e
.	.	.	4d	.
2AA	.	.	2e	2c
2BB-	.	[1D	2r	2d
2GG	.	.	2d	2g
=17	=17	=17	=17	=17
1BB-	0r	1D]	1d	2f
.	.	.	.	4e
.	.	.	.	4d
2AA	.	1A	2c	2e
2FF	.	.	2A	2f
=18	=18	=18	=18	=18
1GG	0r	1.G	2B-	2d
.	.	.	2G	2.e
1GG	.	.	1B-	.
.	.	.	.	4d
.	.	2F	.	[2d
=19	=19	=19	=19	=19
1AA	2r	1E	1A	2d]
.	1A	.	.	2c#
1D	.	1D	2.F	2d
.	2D	.	.	[2a
.	.	.	4G	.
=20	=20	=20	=20	=20
0r	2F	0r	2A	2a]
.	2G	.	2B	2d
.	1E	.	2c	2e
.	.	.	2B	[2g
=21	=21	=21	=21	=21
2r	0D	1r	1d	2g]
1A	.	.	.	4f
.	.	.	.	4e
.	.	1d	1A	2.f
2D	.	.	.	.
.	.	.	.	4g
=22	=22	=22	=22	=22
2F	0r	1d	2r	2a
2G	.	.	1d	2b-
1E	.	1G	.	1g
.	.	.	2c	.
=23	=23	=23	=23	=23
1D	2r	1d	1f	2.a
.	1A	.	.	.
.	.	.	.	4b
1r	.	[1c	1e	2cc
.	2E	.	.	2g
=24	=24	=24	=24	=24
0r	2F	2c]	2r	2a
.	2G	2B-	1d	1g
.	1D	1A	.	.
.	.	.	2A	2f#
=25	=25	=25	=25	=25
2r	1GG	0G	2.B	2.g
1G	.	.	.	.
.	.	.	4c	4a
.	2r	.	2d	2b
2C	[2C	.	[2e	2cc
=26	=26	=26	=26	=26
2E	2C]	0r	4e]	2g
.	.	.	4d	.
2F	2FF	.	1c	1a
1D	1F	.	.	.
.	.	.	2B	4g
.	.	.	.	4f
=27	=27	=27	=27	=27
2.C	2G	0r	1c	1e
.	2.A	.	.	.
4D	.	.	.	.
1E	.	.	1B	2e
.	8G	.	.	.
.	8F#	.	.	.
.	2G#	.	.	2b
=28	=28	=28	=28	=28
2r	1A	1r	2A	2cc
1D	.	.	1f	2dd
.	1r	1A	.	2a
2AA	.	.	2e	[2cc
=29	=29	=29	=29	=29
2C	0r	1A	2e	4cc]
.	.	.	.	4b
2D	.	.	2f	1a
1BB	.	1D	1d	.
.	.	.	.	2g
=30	=30	=30	=30	=30
4AA	2r	1A	1e	1cc
4BB	.	.	.	.
4C	1E	.	.	.
4D	.	.	.	.
4E	.	[1G	2.g	1b
4F	.	.	.	.
2G	2BB	.	.	.
.	.	.	4f	.
=31	=31	=31	=31	=31
0A	2C	2G]	2e	1a
.	2D	2F	1d	.
.	1AA	[1E	.	2r
.	.	.	4c	[2a
.	.	.	4B	.
=32	=32	=32	=32	=32
2r	1AA	1E]	1c#	2a]
1A	.	.	.	2e
.	[1D	[1D	2d	2.f
2D	.	.	[2A	.
.	.	.	.	4g
=33	=33	=33	=33	=33
2F	2D]	1D_	2A]	2a
2G	2GG	.	2G	2b-
2A	1D	1D_	2F	2a
2B-	.	.	2G	[2g
=34	=34	=34	=34	=34
1A	1D	1D]	1A	2g]
.	.	.	.	2f#
[1G	[1GG	[1D	[1B-	[1g
=35	=35	=35	=35	=35
1G]	1GG]	0D_	1B-]	1g]
[1F#	[1D	.	[1A	[1a
=36	=36	=36	=36	=36
1F#_	1D_	0D_	1A_	1a_
1F#_	1D_	.	1A_	1a_
=37	=37	=37	=37	=37
1F#]	1D]	1D]	1A]	1a]
==	==	==	==	==
*-	*-	*-	*-	*-
!!!CDT: 1525/^1526/-1594/2/2
!!!OCY: Italia
!!!AGN: Mass (Paraphrase)
!!!AST: renaissance, vocal
!!!ASW: Popular Song
!!!PWK: Masses, Book 4
!!!RNB: Cadence finals: A
!!!YOR: Le Opere Complete, v. 10, p. 60
!!!YOO: Rome, Italy: Fratelli Scalera
!!!END: 1992//
!!!EED: John Miller
!!!YEC: Copyright 2000, John Miller
!!!YEN: United States of America
!!!YEM: Rights to all derivative electronic formats reserved.
!!!YEM: Refer to licensing agreement for further details.
!!!YEM: This file must be accompanied by the licensing agreement.
!!!YEM: A copy of the licensing agreement may be found at http://www.music-cog.ohio-state.edu/HumdrumDatabases/Palestrina/license.txt
!!!EMD: converted to Humdrum by Bret Aarden
